X: 1263
T: An Droichead Bheag
R: hornpipe
M: 4/4
K: Dmajor
ag|:f2 df e2 ce|d2 cd BAFE|(3 FED FA dcde|
fgfd egag|f2 df e2 ce|dcdA BAFE|
[1 (3 FED FA dcde|fgec dfag:|2 (3 FED FA dcdf|edBc d2 cd||
B2 BA Bcde|fgfg fB B2|ADFA dcde|
fgfd ecdc|B2 BA Bcde|fgfg fB B2|
[1 ADFA dcdf|edBc d2 cd:|2 ADFA dcde|fgec d2 ef||
g2 fg eA A2|f2 ef dA A2|FDFA dcde|fgfg edef|
g2 fg eA A2|f2 ef dA A2|FDFA dcde|1 fgec d2 ef:|2 fgec dfag||

